X:1
T:Title
%%score 1 { 2 | 3 }
L:1/8
M:3/4
K:G
V:1 treble nm="Grand Piano, Unnamed-000"
V:2 treble nm="Choir Pad, Unnamed-001"
V:3 bass 
V:1
 [Gd]2 [DB]2 [DG]2 | [EA]2 [DG]2 [DF]2 | [DG]6 | [DG]2 [DA]2 [GB]2 | [Fc]d [Ac]2 [GB]2 | [FA]6 | %6
w: By~Felice~de~Giardini,~1769 * *||||||
 d2 B2 G2 | D6 | [FA]2 [GB]2 [Ac]2 | [GB]3 [FA] G2 | [FA]2 [GB]2 [Ac]2 | [GB]3 [FA] G2 | G2 B2 d2 | %13
w: |||||||
 [Gd]3 [Ge] [Gd]2 | [Ac]2 [GB]2 [FA]2 | G6- | G2 z2 z2 |] %17
w: ||||
V:2
 B,2 D2 D2 | C2 B,2[K:bass] A,2 | B,6 | B,2 D2 D2 | D2 F,2[K:treble] D2 | D6 | D2 B,2 G,2 | D,6 | %8
 D2 D2 D2 | D3[K:treble] C B,2 | D2 D2 D2 | D3 C[K:bass] B,2 | G,2 B,2 D2 | B,3[K:treble] C B,2 | %14
 E2 D2 C2 | B,6- | B,2 z2 z2 |] %17
V:3
 G,2 G,2 B,,2 | C,2 D,2 D,2 | G,,6 | G,2 F,2 G,2 | A,2 z2 G,2 | D,6 | z6 | z6 | D,2 D,2 D,2 | %9
 G,3 G, G,2 | D,2 D,2 D,2 | G,3 G, G,2 | z6 | G,3 G, G,2 | C,2 D,2 D,2 | [G,,G,]6- | %16
 [G,,G,]2 z2 z2 |] %17

